X: 3
T: Auld Lang Syne
Z: Akira M.
S: https://thesession.org/tunes/12441#setting30952
R: reel
M: 4/4
L: 1/8
K: Cmaj
G2 | c3c d2e2 | G3A G2E2 |c3e d2c2 | A6 cA |
G2E2 D2C2 |D2C2 D2E2 | G4 A3G | G6 :||
